2021/04/09/prioritizing-memory-safety-migrations/surface-01.svg

<svg width="259pt" height="44pt" viewBox="0 0 259 44" xmlns="http://www.w3.org/2000/svg"><g id="graph0" class="graph" transform="scale(1 1) rotate(0) translate(4 40)"><g id="node1" class="node"><title>attacker</title><path fill="none" stroke="var(--fg)" d="M42-36s-30 0-30 0C6-36 0-30 0-24v12C0-6 6 0 12 0H42c6 0 12-6 12-12V-24c0-6-6-12-12-12"/><text text-anchor="middle" x="27" y="-15.8" font-family="Roboto" font-size="9">attacker</text></g><g id="node2" class="node"><title>radio</title><path fill="none" stroke="var(--fg)" d="M134-36s-32 0-32 0c-6 0-12 6-12 12v12c0 6 6 12 12 12h32c6 0 12-6 12-12V-24c0-6-6-12-12-12"/><text text-anchor="middle" x="118" y="-15.8" font-family="Roboto" font-size="9">radio chip</text></g><g id="edge1" class="edge"><title>attacker->radio</title><path fill="none" stroke="var(--fg)" d="M54.22-18c7.95.0 16.84.0 25.37.0"/><polygon fill="var(--fg)" stroke="var(--fg)" points="79.73,-21.5 89.73,-18 79.73,-14.5 79.73,-21.5"/></g><g id="node3" class="node"><title>kernel</title><path fill="none" stroke="var(--fg)" d="M239-36s-45 0-45 0c-6 0-12 6-12 12v12c0 6 6 12 12 12h45c6 0 12-6 12-12V-24c0-6-6-12-12-12"/><text text-anchor="middle" x="216.5" y="-15.8" font-family="Roboto" font-size="9">device driver</text></g><g id="edge2" class="edge"><title>radio->kernel</title><path fill="none" stroke="var(--fg)" d="M146.14-18C154.07-18 162.95-18 171.64-18"/><polygon fill="var(--fg)" stroke="var(--fg)" points="171.69,-21.5 181.69,-18 171.69,-14.5 171.69,-21.5"/></g></g></svg>

<?xml version="1.0" encoding="UTF-8" standalone="no"?>
<!DOCTYPE svg PUBLIC "-//W3C//DTD SVG 1.1//EN"
 "http://www.w3.org/Graphics/SVG/1.1/DTD/svg11.dtd">
<!-- Generated by graphviz version 2.42.4 (0)
 -->
<!-- Pages: 1 -->
<svg width="259pt" height="44pt"
 viewBox="0.00 0.00 259.00 44.00" xmlns="http://www.w3.org/2000/svg" xmlns:xlink="http://www.w3.org/1999/xlink">
<g id="graph0" class="graph" transform="scale(1 1) rotate(0) translate(4 40)">
<!-- attacker -->
<g id="node1" class="node">
<title>attacker</title>
<path fill="none" stroke="var(--fg)" d="M42,-36C42,-36 12,-36 12,-36 6,-36 0,-30 0,-24 0,-24 0,-12 0,-12 0,-6 6,0 12,0 12,0 42,0 42,0 48,0 54,-6 54,-12 54,-12 54,-24 54,-24 54,-30 48,-36 42,-36"/>
<text text-anchor="middle" x="27" y="-15.8" font-family="Roboto" font-size="9.00">attacker</text>
</g>
<!-- radio -->
<g id="node2" class="node">
<title>radio</title>
<path fill="none" stroke="var(--fg)" d="M134,-36C134,-36 102,-36 102,-36 96,-36 90,-30 90,-24 90,-24 90,-12 90,-12 90,-6 96,0 102,0 102,0 134,0 134,0 140,0 146,-6 146,-12 146,-12 146,-24 146,-24 146,-30 140,-36 134,-36"/>
<text text-anchor="middle" x="118" y="-15.8" font-family="Roboto" font-size="9.00">radio chip</text>
</g>
<!-- attacker&#45;&gt;radio -->
<g id="edge1" class="edge">
<title>attacker&#45;&gt;radio</title>
<path fill="none" stroke="var(--fg)" d="M54.22,-18C62.17,-18 71.06,-18 79.59,-18"/>
<polygon fill="var(--fg)" stroke="var(--fg)" points="79.73,-21.5 89.73,-18 79.73,-14.5 79.73,-21.5"/>
</g>
<!-- kernel -->
<g id="node3" class="node">
<title>kernel</title>
<path fill="none" stroke="var(--fg)" d="M239,-36C239,-36 194,-36 194,-36 188,-36 182,-30 182,-24 182,-24 182,-12 182,-12 182,-6 188,0 194,0 194,0 239,0 239,0 245,0 251,-6 251,-12 251,-12 251,-24 251,-24 251,-30 245,-36 239,-36"/>
<text text-anchor="middle" x="216.5" y="-15.8" font-family="Roboto" font-size="9.00">device driver</text>
</g>
<!-- radio&#45;&gt;kernel -->
<g id="edge2" class="edge">
<title>radio&#45;&gt;kernel</title>
<path fill="none" stroke="var(--fg)" d="M146.14,-18C154.07,-18 162.95,-18 171.64,-18"/>
<polygon fill="var(--fg)" stroke="var(--fg)" points="171.69,-21.5 181.69,-18 171.69,-14.5 171.69,-21.5"/>
</g>
</g>
</svg>
